X: 17225
T: Her Long Dark Hair Flowing Down Her Back
R: hornpipe
M: 4/4
K: Dmajor
|:f2df efdB|BAGB A2de|f2df e2de|fbba b2ag|
f2df efdB|BAGB A2de|fedf edBA|B2BA Bcde:|
|:faab afef|dBAB d4|fbba b2ag|fedf e2de|
faab afef|dBAB d4|fedf edBA|B2BA Bcde:|

